src/components/00-materials/images-raw/Greenhouse.svg

<svg width="96" height="96" viewBox="0 0 96 96" fill="none" xmlns="http://www.w3.org/2000/svg">
<path d="M16 40.8299C15.9898 40.4288 16.0752 40.0309 16.249 39.6693C16.4229 39.3076 16.6803 38.9925 17 38.7499L44.69 17.7499C45.3447 17.2583 46.1413 16.9924 46.96 16.9924C47.7788 16.9924 48.5754 17.2583 49.23 17.7499L76.92 38.7499C77.2403 38.9919 77.4982 39.3069 77.6721 39.6687C77.8461 40.0305 77.9311 40.4286 77.92 40.8299C77.92 41.3174 77.7841 41.7951 77.5274 42.2095C77.2708 42.6239 76.9036 42.9584 76.4673 43.1756C76.0309 43.3927 75.5426 43.4838 75.0573 43.4387C74.5719 43.3935 74.1088 43.2139 73.72 42.9199L47.54 23.0499C47.3771 22.9274 47.1788 22.8612 46.975 22.8612C46.7712 22.8612 46.5729 22.9274 46.41 23.0499L20.18 42.9199C19.7912 43.2081 19.33 43.383 18.8478 43.4251C18.3657 43.4672 17.8812 43.3749 17.4483 43.1584C17.0154 42.942 16.6509 42.6098 16.3952 42.1988C16.1396 41.7878 16.0028 41.314 16 40.8299V40.8299Z" stroke="#00008F" stroke-width="2" stroke-linecap="round" stroke-linejoin="round"/>
<path d="M75.15 43.4599V79V78.9899H18.79V43.45" stroke="#00008F" stroke-width="2" stroke-linecap="round" stroke-linejoin="round"/>
<path d="M41.68 62.3499C41.68 62.3499 51.68 52.5099 34.03 49.2699C34.03 49.2699 29.6 63.0199 41.3 62.1399M52.9 59.1299C52.9 59.1299 42 51.9999 58.78 40.1099C58.78 40.1099 69.51 57.3299 53.22 59.1099L52.9 59.1299Z" stroke="#00008F" stroke-width="2" stroke-miterlimit="10"/>
<path d="M47 68.24C49.8501 64.9828 52.1228 61.2626 53.72 57.24C54.4893 55.2912 55.1045 53.285 55.56 51.24M47 68.24C44.5302 66.1307 42.4106 63.6432 40.72 60.87C39.894 59.522 39.1686 58.1149 38.55 56.66M47 68.24V72.51M33 78.9C33 78.9 46.63 64.51 61 78.9" stroke="#00008F" stroke-width="2" stroke-linecap="round" stroke-linejoin="round"/>
</svg>

<svg width="96" height="96" viewBox="0 0 96 96" fill="none" xmlns="http://www.w3.org/2000/svg"><path d="M16 40.83a2.531 2.531 0 011-2.08l27.69-21a3.78 3.78 0 014.54 0l27.69 21a2.52 2.52 0 011 2.08 2.62 2.62 0 01-4.2 2.09L47.54 23.05a.94.94 0 00-1.13 0L20.18 42.92A2.62 2.62 0 0116 40.83v0z" stroke="#00008F" stroke-width="2" stroke-linecap="round" stroke-linejoin="round"/><path d="M75.15 43.46V79v-.01H18.79V43.45" stroke="#00008F" stroke-width="2" stroke-linecap="round" stroke-linejoin="round"/><path d="M41.68 62.35s10-9.84-7.65-13.08c0 0-4.43 13.75 7.27 12.87m11.6-3.01S42 52 58.78 40.11c0 0 10.73 17.22-5.56 19l-.32.02z" stroke="#00008F" stroke-width="2" stroke-miterlimit="10"/><path d="M47 68.24a38 38 0 006.72-11 40.061 40.061 0 001.84-6m-8.56 17a30.72 30.72 0 01-6.28-7.37 32.092 32.092 0 01-2.17-4.21M47 68.24v4.27M33 78.9s13.63-14.39 28 0" stroke="#00008F" stroke-width="2" stroke-linecap="round" stroke-linejoin="round"/></svg>
